!!!OTL: Waise und Stiefmutter Ein armes Maedchen war
!!!ARE: Europa, Mitteleuropa, Deutschland (), Sachsen
!!!YOR: 5, S. 300
!!    1928 gedruckt in Leipzig
!!!SCT: Q0116F
!!!YEM: Copyright 1995, estate of Helmut Schaffrath.
**kern
*ICvox
*Ivox
*M6/8
*k[f#]
*G:
{8d
=1
4g
8g
8g
8f#
8g
=2
4a
4.r}
{16d
16d
=3
4a
8a
8a
8g
8a
=4
4b
4.r}
{8d
=5
4cc
8cc
8b
8a
8b
=6
4cc
4.r}
{8cc
=7
4b
8g
4a
8f#
=8
4g
4.r}
==
!!!AGN: Ballade, Waise, boese Stiefmutter, Klage am Grab, Geist
!!!ONB: ESAC (Essen Associative Code) Database: BALLADE
!!!AMT: compound duple
!!!AIN: vox
!!!EED: Helmut Schaffrath
!!!EEV: 1.0
*-
